X:1
T:Tebe poem
T:Tebe poem
T:Stevan Mokanjac
C:Stevan Mokanjac
%%score [ 1 2 3 4 ]
L:1/8
Q:1/4=60
M:6/4
K:G
V:1 treble nm="Soprano"
V:2 treble nm="Alto"
V:3 treble-8 nm="Tenor"
V:4 bass nm="Bass"
V:1
"^Adagio"!p! D2 G4 F2 G4 |[M:7/4] A2 G2 F2 E2 F2 G4 | %2
w: Te- be po- em,|Te- be bla- go- slo- vim,|
[M:10/4]!<(! G2 A2 B2 c2!<)!!>(! B4 G2!>)! !>!A4 F2 |[M:4/4] G4 z2 D2 |!<(! G4 G4 | %5
w: Te- be bla- go- da- rim, Go- spo-|di, i|mo- lim|
 G4!<)! (G>A B2) | (A4 B4 |!>(! A2 B2 A2 BA)!>)! | G8 |!pp!!<(! (A4 B4!<)! |!>(! !>!c3 B A4)!>)! | %11
w: Ti sja, _ _|Bo- *||zje,|Bo- *||
!<(! (G6 F2!<)! |!>(! E4 F2 A2) | G6!>)!!p! D2 |[M:3/2]!<(! G6 F2 G2!<)! E2 | %15
w: zje _|_ _ _|nasj. I|mo- lim Ti sja,|
!>(! (F4 G2) G2 G2!>)!!pp! D2 |!<(! G6 F2 G2!<)! E2 |[M:4/4]!>(! (F4 G2) G2!>)! | G6!p! D2 | %19
w: Bo- * zje nasj, I|mo- lim Ti sja,|Bo- * zje|nasj, I|
!<(! G4 G4 | G4 (G>A B2)!<)! | (A4 B4 | A2 B2!>(! A2 BA) | G8!>)! |!p!!<(! (A4 B4!<)! | %25
w: mo- lim|Ti sja, _ _|Bo- *||zje,|Bo- *|
!>(! !>!c3 B A4)!>)! |!<(! (G6 F2 | E4!<)!!>(! F2 A2)!>)! | G8 |] %29
w: |zje _|_ _ _|nasj.|
V:2
!p! D2 D4 D2 D4 |[M:7/4] E2 D2 C2 C2 D2 D4 | %2
w: Te- be po- em,|Te- be bla- go- slo- vim,|
[M:10/4]!<(! D2 E2 G2 G2!<)!!>(! G2 F2 E2!>)! !>!E4 D2 |[M:4/4] D4 z2 D2 |!<(! E4 F4 | E4!<)! D4 | %6
w: Te- be bla- go- da- * rim, Go- spo-|di, i|mo- lim|Ti sja,|
 (F4 G4 |!>(! F8)!>)! | E8 |!pp!!<(! (F4 G4!<)! |!>(! E8)!>)! |!<(! (D4 C4-!<)! |!>(! C8) | %13
w: Bo- *||zje,|Bo- *||zje _|_|
 B,6!>)! z2 |[M:3/2] z2!p! B,2 E2 ^D2 E2 C2 | (A,2 =DC B,2) E2 D2 z2 | z2!pp! B,2 E2 ^D2 E2 C2 | %17
w: nasj.|I mo- lim Ti sja,|Bo- * * * zje nasj,|I mo- lim Ti sja,|
[M:4/4] (A,2 =DC B,2) E2 | D6!p! D2 |!<(! E4 F4 | E4 D4!<)! | (F4 G4 |!>(! F8) | E8!>)! | %24
w: Bo- * * * zje|nasj, I|mo- lim|Ti sja,|Bo- *||zje,|
!p!!<(! (F4 G4!<)! |!>(! E8)!>)! |!<(! (D4 C4- |!>(! C8)!<)!!>)! | B,8 |] %29
w: Bo- *||zje _|_|nasj.|
V:3
!p! d2 B4 A2 B4 |[M:7/4] c2 B2 A2 G2 A2 B4 |[M:10/4]!<(! B2 c2 d2 e2!<)!!>(! d4 B2!>)! !>!c4 A2 | %3
w: Te- be po- em,|Te- be bla- go- slo- vim,|Te- be bla- go- da- rim, Go- spo-|
[M:4/4] B4 z2 A2 |!<(! B4 B4 | c4!<)! d4 | (d8 |!>(! c4 B4)!>)! | B8 |!pp!!<(! (c4 B4!<)! | %10
w: di, i|mo- lim|Ti sja,|Bo-||zje,|Bo- *|
!>(! !>!A3 ^G A4)!>)! |!<(! (B4 A4!<)! |!>(! =G4 A2 F2) | D6!>)! z2 |[M:3/2] z4 z2!p! B2 E2 A2 | %15
w: |zje _|_ _ _|nasj.|I mo- lim|
 c2 (BA) G2 (GA) B2 z2 | z4 z2!pp! B2 E2 A2 |[M:4/4] c2 (BA) G2 (AB) | B6!p! A2 |!<(! B4 B4 | %20
w: Ti sja, _ Bo- zje _ nasj,|I mo- lim|Ti sja, _ Bo- zje _|nasj, I|mo- lim|
 c4 d4!<)! | (d8 | c4!>(! B4) | B8!>)! |!p!!<(! (c4 B4!<)! |!>(! !>!A3 ^G A4)!>)! |!<(! (B4 A4 | %27
w: Ti sja,|Bo-||zje,|Bo- *||zje _|
 =G4!<)!!>(! A2 F2)!>)! | D8 |] %29
w: _ _ _|nasj.|
V:4
!p! D,2 G,,4 G,,2 G,,4 |[M:7/4] G,,2 G,,2 G,,2 G,,2 G,,2 G,,4 | %2
w: Te- be po- em,|Te- be bla- go- slo- vim,|
[M:10/4]!<(! =F,2 E,2 D,2 C,2!<)!!>(! G,,4 E,2!>)! !>!A,,4 D,2 |[M:4/4] G,4 z2 F,2 |!<(! E,4 D,4 | %5
w: Te- be bla- go- da- rim, Go- spo-|di, i|mo- lim|
 C,4!<)! (B,,>A,, G,,2) | (D,4 G,4 |!>(! D,4 ^D,4)!>)! | E,8 |!pp!!<(! ([E,,E,]8!<)! | %10
w: Ti sja, _ _|Bo- *||zje,|Bo-|
!>(! !>!A,,3 B,, C,4)!>)! |!<(! (D,8-!<)! |!>(! D,4 [D,,D,]4) | G,,6!>)! z2 | %14
w: |zje|_ _|nasj.|
[M:3/2] z4 z4 z2!p! A,,2 | D, D, D, D, E,2 C,2 G,,2 z2 | z4 z4 z2!pp! A,,2 | %17
w: I|mo- lim Ti sja, Bo- zje nasj,|I|
[M:4/4] D, D, D, D, E,2 C,2 | G,6!p! F,2 |!<(! E,4 D,4 | C,4 (B,,>A,, G,,2)!<)! | (D,4 G,4 | %22
w: mo- lim Ti sja, Bo- zje|nasj, I|mo- lim|Ti sja, _ _|Bo- *|
 D,4!>(! ^D,4) | E,8!>)! |!p!!<(! ([E,,E,]8!<)! |!>(! !>!A,,3 B,, C,4)!>)! |!<(! (D,8- | %27
w: |zje,|Bo-||zje|
 D,4!<)!!>(! [D,,D,]4)!>)! | G,,8 |] %29
w: _ _|nasj.|

